gb/_inc/system.svg

<svg xmlns="http://www.w3.org/2000/svg"><g fill="#fff"><path d="m573.944.968h26.056l-36.734 57.146-5.959 44.582h-23.547l6.901-50.87-23.547-50.858h25.43l12.563 28.89z"/><path d="m299.546 62.507h31.074l3.141-22.605h-30.764l2.203-16.329h35.781l3.461-22.605h-59.34l-14.129 101.728h59.022l3.141-22.614h-35.79z"/><path d="m118.703 52.454 7.85-21.033 2.514 21.033h-10.361zm-8.476 20.094h21.347l3.772 30.139h38.614l17.898-55.257 8.792 55.257h20.409l22.605-58.395 3.768 58.395h22.602l-6.279-101.722h-27.001l-21.039 53.685-8.164-53.685h-24.174l-27.629 83.513-10.361-83.513h-30.139l-33.597 84.452 4.396-32.963h-40.82l-2.827 20.091h17.898l-1.258 6.907c-3.138 1.882-10.358 2.199-13.185 2.199-2.824 0-23.86-1.882-22.919-24.49.935-22.602 31.074-43.639 66.865-32.022l3.457-21.664c-23.863-8.161-86.533-3.593-92.936 52.43-3.765 32.967 26.377 48.665 46.468 48.354 11.616.628 24.805-3.768 29.512-6.282l-1.569 4.71h23.863l11.616-30.139z"/><path d="m491.682.029c-16.326-.63-39.875 8.79-47.723 46.779-7.848 37.987 13.185 53.372 32.652 55.885 19.467 2.511 46.782-9.733 51.803-46.151 5.03-36.421-12.878-55.571-36.732-56.513zm-2.507 21.664c6.593 0 20.719 4.396 17.264 30.764-3.451 26.373-19.777 29.514-25.742 28.887-5.969-.631-18.212-4.71-14.758-28.887 3.461-24.171 16.33-31.081 23.242-30.764z"/><path d="m392.467 39.902h13.188c9.731 0 11.617-6.279 11.927-8.789.314-2.513-2.51-7.537-7.531-7.537h-15.384l-2.191 16.326zm-5.651 40.186h17.898c9.73 0 11.927-7.534 12.241-10.047.314-2.51-2.511-7.534-7.534-7.534h-20.092l-2.51 17.581zm-26.365 22.605 14.13-101.722h43.324c10.364 0 25.432 11.933 23.55 27.942-1.883 16.013-6.907 16.957-10.362 19.467 5.341 4.707 10.675 12.241 8.479 26.371-2.2 14.13-13.816 27.942-34.221 27.942h-44.897z"/></g></svg>

<?xml version="1.0" encoding="utf-8"?>
<svg id="svg2" version="1.1" xmlns="http://www.w3.org/2000/svg">
  <g>
    <polygon id="_43443024" points="573.944 0.968 600 0.968 563.266 58.114 557.307 102.696 533.76 102.696 540.661 51.826 517.114 0.968 542.544 0.968 555.107 29.858" style="fill: rgb(255, 255, 255);"/>
    <polygon id="_43441624" points="299.546 62.507 330.62 62.507 333.761 39.902 302.997 39.902 305.2 23.573 340.981 23.573 344.442 0.968 285.102 0.968 270.973 102.696 329.995 102.696 333.136 80.082 297.346 80.082" style="fill: rgb(255, 255, 255);"/>
    <path id="_43775888" d="M 118.703 52.454 L 126.553 31.421 L 129.067 52.454 L 118.706 52.454 Z M 110.227 72.548 L 131.574 72.548 L 135.346 102.687 L 173.96 102.687 L 191.858 47.43 L 200.65 102.687 L 221.059 102.687 L 243.664 44.292 L 247.432 102.687 L 270.034 102.687 L 263.755 0.965 L 236.754 0.965 L 215.715 54.65 L 207.551 0.965 L 183.377 0.965 L 155.748 84.478 L 145.387 0.965 L 115.248 0.965 L 81.651 85.417 L 86.047 52.454 L 45.227 52.454 L 42.4 72.545 L 60.298 72.545 L 59.04 79.452 C 55.902 81.334 48.682 81.651 45.855 81.651 C 43.031 81.651 21.995 79.769 22.936 57.161 C 23.871 34.559 54.01 13.522 89.801 25.139 L 93.258 3.475 C 69.395 -4.686 6.725 -0.118 0.322 55.905 C -3.443 88.872 26.699 104.57 46.79 104.259 C 58.406 104.887 71.595 100.491 76.302 97.977 L 74.733 102.687 L 98.596 102.687 L 110.212 72.548 Z" style="fill: rgb(255, 255, 255);"/>
    <path id="_44102912" d="M 491.682 0.029 C 475.356 -0.601 451.807 8.819 443.959 46.808 C 436.111 84.795 457.144 100.18 476.611 102.693 C 496.078 105.204 523.393 92.96 528.414 56.542 C 533.444 20.121 515.536 0.971 491.682 0.029 Z M 489.175 21.693 C 495.768 21.693 509.894 26.089 506.439 52.457 C 502.988 78.83 486.662 81.971 480.697 81.344 C 474.728 80.713 462.485 76.634 465.939 52.457 C 469.4 28.286 482.269 21.376 489.181 21.693 Z" style="fill: rgb(255, 255, 255);"/>
    <path id="_44104296" d="M 392.467 39.902 L 405.655 39.902 C 415.386 39.902 417.272 33.623 417.582 31.113 C 417.896 28.6 415.072 23.576 410.051 23.576 L 394.667 23.576 L 392.476 39.902 Z M 386.816 80.088 L 404.714 80.088 C 414.444 80.088 416.641 72.554 416.955 70.041 C 417.269 67.531 414.444 62.507 409.421 62.507 L 389.329 62.507 L 386.819 80.088 Z M 360.451 102.693 L 374.581 0.971 L 417.905 0.971 C 428.269 0.971 443.337 12.904 441.455 28.913 C 439.572 44.926 434.548 45.87 431.093 48.38 C 436.434 53.087 441.768 60.621 439.572 74.751 C 437.372 88.881 425.756 102.693 405.351 102.693 L 360.454 102.693 Z" style="fill: rgb(255, 255, 255);"/>
  </g>
</svg>
